X:1
T:John Brown's Body
M:6/8
L:1/4
K:F
 C C/2| C- C/2 C- B,/2| A, C/2 F G/2| A A/2 A G/2| F3/2 F E/2| D- D/2 D- E/2|\
 F E/2 F D/2| C D/2 C A,/2| C3/2 C C/2| C- C/2 C- B,/2| A, C/2 F G/2|\
 A A/2 A G/2| F3/2 F3/2| G3/2 G3/2| F3/2 E3/2| F3-| F3| C3/2- C B,/2|\
 A, C/2 F G/2| A3| F3| D3/2- D E/2| F E/2 F D/2| C3| A,3| C3/2- C B,/2|\
 A, C/2 F G/2| A3| F3/2 F3/2| G3/2 G3/2| F3/2 E3/2| F3-| F z/2||
